www/assets/icons/thumb_up.svg

<svg xmlns="http://www.w3.org/2000/svg" width="24" height="24" viewBox="0 0 24 24" fill='currentColor'><path d="M1 22h4V10H1zm22-11c0-1.1-.9-2-2-2h-6.31l.95-4.57.03-.32c0-.41-.17-.79-.44-1.06L14.17 2 7.59 8.59C7.22 8.95 7 9.45 7 10v10c0 1.1.9 2 2 2h9c.83 0 1.54-.5 1.84-1.22l3.02-7.05c.09-.23.14-.47.14-.73z"/></svg>

<svg width="24" height="24" viewBox="0 0 24 24" xmlns="http://www.w3.org/2000/svg" fill='currentColor'><path d="M1 22H5V10H1V22ZM23 11C23 9.9 22.1 9 21 9H14.69L15.64 4.43L15.67 4.11C15.67 3.7 15.5 3.32 15.23 3.05L14.17 2L7.59 8.59C7.22 8.95 7 9.45 7 10V20C7 21.1 7.9 22 9 22H18C18.83 22 19.54 21.5 19.84 20.78L22.86 13.73C22.95 13.5 23 13.26 23 13V11Z"/></svg>
